src/rounded/icons/fi-rr-lipstick.svg

<svg id="Layer_1" height="512" viewBox="0 0 24 24" width="512" xmlns="http://www.w3.org/2000/svg" data-name="Layer 1"><path d="m17 13.184v-3.184a1 1 0 0 0 -1-1v-6.586a2.412 2.412 0 0 0 -3.492-2.157l-2.622 1.31a3.4 3.4 0 0 0 -1.886 3.053v4.38a1 1 0 0 0 -1 1v3.184a3 3 0 0 0 -2 2.816v3a5.006 5.006 0 0 0 5 5h4a5.006 5.006 0 0 0 5-5v-3a3 3 0 0 0 -2-2.816zm-8-.184v-2h6v2zm1-8.38a1.407 1.407 0 0 1 .781-1.264l2.619-1.31a.411.411 0 0 1 .6.368v6.586h-4zm7 14.38a3 3 0 0 1 -3 3h-4a3 3 0 0 1 -3-3v-3a1 1 0 0 1 1-1h8a1 1 0 0 1 1 1z"/></svg>

<svg id="Layer_1" data-name="Layer 1" xmlns="http://www.w3.org/2000/svg" viewBox="0 0 24 24"><path d="M17,13.184V10a1,1,0,0,0-1-1V2.414A2.412,2.412,0,0,0,12.508.257L9.886,1.567A3.4,3.4,0,0,0,8,4.62V9a1,1,0,0,0-1,1v3.184A3,3,0,0,0,5,16v3a5.006,5.006,0,0,0,5,5h4a5.006,5.006,0,0,0,5-5V16A3,3,0,0,0,17,13.184ZM9,13V11h6v2Zm1-8.38a1.407,1.407,0,0,1,.781-1.264L13.4,2.046a.411.411,0,0,1,.6.368V9H10ZM17,19a3,3,0,0,1-3,3H10a3,3,0,0,1-3-3V16a1,1,0,0,1,1-1h8a1,1,0,0,1,1,1Z"/></svg>
